app/assets/images/heroicons/micro/bell-snooze.svg

<svg width="16" height="16" viewBox="0 0 16 16" fill="none" xmlns="http://www.w3.org/2000/svg">
<path fill-rule="evenodd" clip-rule="evenodd" d="M8 1C10.2091 1 12 2.79086 12 5V7.37868C12 7.7765 12.158 8.15804 12.4393 8.43934L13.7071 9.70711C13.8946 9.89464 14 10.149 14 10.4142V11C14 11.5523 13.5523 12 13 12H11C11 13.6569 9.65685 15 8 15C6.34315 15 5 13.6569 5 12H3C2.44772 12 2 11.5523 2 11V10.4142C2 10.149 2.10536 9.89464 2.29289 9.70711L3.56066 8.43934C3.84197 8.15804 4 7.7765 4 7.37868V5C4 2.79086 5.79086 1 8 1ZM8 13.5C7.17157 13.5 6.5 12.8284 6.5 12H9.5C9.5 12.8284 8.82843 13.5 8 13.5ZM6.75 4C6.33579 4 6 4.33579 6 4.75C6 5.16421 6.33579 5.5 6.75 5.5H7.79261L6.1397 7.81407C5.97641 8.04268 5.95457 8.34338 6.08313 8.59319C6.21168 8.84299 6.46906 9 6.75 9H9.25C9.66422 9 10 8.66421 10 8.25C10 7.83579 9.66422 7.5 9.25 7.5H8.20739L9.8603 5.18593C10.0236 4.95732 10.0454 4.65662 9.91688 4.40681C9.78833 4.15701 9.53094 4 9.25 4H6.75Z" fill="#0F172A"/>
</svg>

<svg xmlns="http://www.w3.org/2000/svg" viewBox="0 0 16 16" fill="currentColor" aria-hidden="true" data-slot="icon">
  <path fill-rule="evenodd" d="M8 1a4 4 0 0 1 4 4v2.379c0 .398.158.779.44 1.06l1.267 1.268a1 1 0 0 1 .293.707V11a1 1 0 0 1-1 1h-2a3 3 0 1 1-6 0H3a1 1 0 0 1-1-1v-.586a1 1 0 0 1 .293-.707L3.56 8.44A1.5 1.5 0 0 0 4 7.38V5a4 4 0 0 1 4-4Zm0 12.5A1.5 1.5 0 0 1 6.5 12h3A1.5 1.5 0 0 1 8 13.5ZM6.75 4a.75.75 0 0 0 0 1.5h1.043L6.14 7.814A.75.75 0 0 0 6.75 9h2.5a.75.75 0 1 0 0-1.5H8.207L9.86 5.186A.75.75 0 0 0 9.25 4h-2.5Z" clip-rule="evenodd"/>
</svg>
